X: 43151
T: Winston In The 50's
R: reel
M: 4/4
K: Gmixolydian
BGdG eGdG|AFCF AFAc|BGdG eGdG|cAFc BGBc:|
bggg g2dg|bgdg affc'|bggg bgdg|c'afc' bggc'|
bggg bgdg|bgdg affa|bg(3ag^f gdba|gedc BGBc||

